X: 32303
T: Pigeon On The Gate, The
R: reel
M: 4/4
K: Adorian
gf|:eA A2 egfg|eA A2 e2 dB|1 G2 BG dGBG|Bdef g2 fg:|2 GABd g2 ga|bagb a2||
ag|eaag abag|eaab c'bag|eggf gage|dega bgag|
eaag abag|eaab c'bag|edef gage|dBGB A2||

